<?xml version="1.0" encoding="UTF-8"?>
<map version="1.10" tiledversion="1.11.2" orientation="orthogonal" renderorder="right-down" width="16" height="15" tilewidth="64" tileheight="64" infinite="0" nextlayerid="6" nextobjectid="39">
 <tileset firstgid="1" source="blue.tsx"/>
 <layer id="1" name="ground" width="16" height="15">
  <data encoding="csv">
17,18,19,20,21,22,23,24,25,26,27,28,29,30,31,32,
33,34,35,36,37,38,39,40,41,42,43,44,45,46,47,48,
49,50,51,52,53,54,55,56,57,58,59,60,61,62,63,64,
65,66,67,68,69,70,71,72,73,74,75,76,77,78,79,80,
81,82,83,84,85,86,87,88,89,90,91,92,93,94,95,96,
97,98,99,100,101,102,103,104,105,106,107,108,109,110,111,112,
113,114,115,116,117,118,119,120,121,122,123,124,125,126,127,128,
129,130,131,132,133,134,135,136,137,138,139,140,141,142,143,144,
145,146,147,148,149,150,151,152,153,154,155,156,157,158,159,160,
161,162,163,164,165,166,167,168,169,170,171,172,173,174,175,176,
177,178,179,180,181,182,183,184,185,186,187,188,189,190,191,192,
193,194,195,196,197,198,199,200,201,202,203,204,205,206,207,208,
209,210,211,212,213,214,215,216,217,218,219,220,221,222,223,224,
225,226,227,228,229,230,231,232,233,234,235,236,237,238,239,240,
241,242,243,244,245,246,247,248,249,250,251,252,253,254,255,256
</data>
 </layer>
 <objectgroup id="2" name="collision">
  <object id="2" x="650.667" y="93.6667">
   <polygon points="0,0 217.879,213.242 218.424,507.061 0.969697,722.697 -320.167,721.458 -546.917,499.583 -545.394,211.97 -327.167,-2.16667 -191.167,0.833333 -190.667,-52.1667 -338.417,-51.1667 -573.667,182.833 -574.667,530.333 -324.167,778.833 3.33333,774.333 247.333,534.833 247.833,190.333 1.83333,-55.6667 -195.167,-51.6667 -193.667,-0.166667"/>
  </object>
  <object id="3" x="239.667" y="237.667" width="99" height="99.6667">
   <ellipse/>
  </object>
  <object id="4" x="117.333" y="286" width="123" height="109">
   <ellipse/>
  </object>
  <object id="5" x="33.1667" y="377.417" width="123.667" height="109.917">
   <ellipse/>
  </object>
  <object id="6" x="68.8333" y="500" width="112.833" height="122.583">
   <ellipse/>
  </object>
  <object id="7" x="131.833" y="610.583" width="121.167" height="125.417">
   <ellipse/>
  </object>
  <object id="8" x="250" y="669" width="103" height="105.167">
   <ellipse/>
  </object>
  <object id="9" x="570.667" y="577.333" width="91.3333" height="99.3333">
   <ellipse/>
  </object>
  <object id="10" x="675.333" y="666" width="105.333" height="105.333">
   <ellipse/>
  </object>
  <object id="11" x="760.975" y="676.685" width="78.6667" height="58.6667" rotation="320.929">
   <ellipse/>
  </object>
  <object id="12" x="859.875" y="519.439" width="52" height="86.8333" rotation="17.9251">
   <ellipse/>
  </object>
  <object id="13" x="767.5" y="193.333" width="105.833" height="100.167">
   <ellipse/>
  </object>
  <object id="14" x="557.667" y="239.667" width="101.333" height="94.6667">
   <ellipse/>
  </object>
  <object id="15" x="516" y="101" width="98.8333" height="100.333">
   <ellipse/>
  </object>
  <object id="16" x="657.833" y="160.5" width="103.167" height="97.5">
   <ellipse/>
  </object>
  <object id="17" x="275.667" y="68" width="88.6667" height="93.3333">
   <ellipse/>
  </object>
  <object id="18" x="863.264" y="295.412" width="64" height="98.6667" rotation="19.7944">
   <ellipse/>
  </object>
  <object id="19" x="309.25" y="159.25" width="24" height="19"/>
  <object id="20" x="270.75" y="334" width="31" height="59.5"/>
  <object id="21" x="161" y="393.75" width="33" height="69.25"/>
  <object id="22" x="549.5" y="199" width="28.5" height="37"/>
  <object id="23" x="591.5" y="331.5" width="32.5" height="56"/>
  <object id="24" x="695" y="255" width="30" height="47"/>
  <object id="25" x="599" y="673.5" width="28.5" height="56.5"/>
  <object id="26" x="811.5" y="292" width="33.5" height="64"/>
  <object id="27" x="284.25" y="769" width="30.75" height="37.5"/>
  <object id="29" x="545" y="437" width="47" height="65">
   <ellipse/>
  </object>
  <object id="30" x="411" y="475.333" width="50" height="68">
   <ellipse/>
  </object>
  <object id="31" x="264" y="502.333" width="44.6667" height="55">
   <ellipse/>
  </object>
 </objectgroup>
 <objectgroup id="3" name="entry_point">
  <object id="32" name="from_hall" x="825" y="459.333">
   <point/>
  </object>
 </objectgroup>
 <objectgroup id="4" name="teleport">
  <object id="34" name="hall" x="824.403" y="486.37" width="67" height="35.6667" rotation="269.881">
   <properties>
    <property name="target_map" value="asset/hall/hall.tmx"/>
    <property name="target_spawn_point" value="from_blue"/>
   </properties>
  </object>
 </objectgroup>
 <objectgroup id="5" name="interact">
  <object id="38" name="closed_door" x="460.667" y="96" width="74.6667" height="35.3333"/>
 </objectgroup>
</map>
