<?xml version="1.0" encoding="UTF-8"?>
<map version="1.10" tiledversion="1.11.2" orientation="orthogonal" renderorder="right-down" width="10" height="11" tilewidth="64" tileheight="64" infinite="0" nextlayerid="6" nextobjectid="28">
 <tileset firstgid="2" source="red.tsx"/>
 <layer id="1" name="ground" width="10" height="11">
  <data encoding="csv">
0,0,0,0,0,0,0,0,0,0,
0,0,0,0,0,0,0,0,0,0,
0,0,2,3,4,5,6,7,0,0,
0,0,8,9,10,11,12,13,0,0,
0,0,14,15,16,17,18,19,0,0,
0,0,20,21,22,23,24,25,0,0,
0,0,26,27,28,29,30,31,0,0,
0,0,32,33,34,35,36,37,0,0,
0,0,38,39,40,41,42,43,0,0,
0,0,0,0,0,0,0,0,0,0,
0,0,0,0,0,0,0,0,0,0
</data>
 </layer>
 <objectgroup id="2" name="collision">
  <object id="1" x="47.3333" y="63.3333" width="464.667" height="190"/>
  <object id="3" x="48.3333" y="253.667" width="101.333" height="320"/>
  <object id="4" x="502" y="256.667" width="31.3333" height="318.667"/>
  <object id="5" x="149.667" y="536" width="351.333" height="111.333"/>
  <object id="6" x="163" y="243.667" width="49.3333" height="61.3333"/>
  <object id="7" x="257.333" y="254" width="48.6667" height="48"/>
  <object id="8" x="329" y="251.833" width="50.6667" height="52.6667"/>
  <object id="9" x="451.333" y="349.5" width="43.3333" height="77.833"/>
  <object id="10" x="438" y="434.333" width="55.3333" height="105.333"/>
  <object id="11" x="162" y="436" width="48" height="102"/>
  <object id="12" x="162" y="324.667" width="49.3333" height="98.6667"/>
 </objectgroup>
 <objectgroup id="3" name="interact">
  <object id="14" name="green" x="329.5" y="207.166" width="63.3333" height="104.833"/>
  <object id="15" name="purple" x="248.667" y="206.667" width="60" height="111.333"/>
  <object id="16" name="cyan" x="161.333" y="208" width="62.6667" height="109.333"/>
  <object id="17" name="blue" x="156.667" y="324.667" width="71.3333" height="93.3333"/>
  <object id="18" name="brown" x="157.333" y="432.667" width="64" height="93.3333"/>
  <object id="19" name="yellow" x="428.334" y="324.666" width="65.3333" height="99.667"/>
  <object id="20" name="red" x="430.667" y="429.333" width="64" height="107.333"/>
  <object id="21" name="paper" x="302" y="396" width="44" height="48"/>
 </objectgroup>
 <objectgroup id="4" name="teleport">
  <object id="24" name="red_hall" x="446" y="273.333" width="48" height="46.6667">
   <properties>
    <property name="target_map" value="asset/hall/hall.tmx"/>
    <property name="target_spawn_point" value="from_red"/>
   </properties>
  </object>
 </objectgroup>
 <objectgroup id="5" name="entry_point">
  <object id="27" name="from_hall" x="416.5" y="291.167">
   <point/>
  </object>
 </objectgroup>
</map>
